elusive/livejournal.svg

<?xml version="1.0" encoding="UTF-8" standalone="no"?>
<!-- Generator: IcoMoon.io -->

<svg
   xmlns:dc="http://purl.org/dc/elements/1.1/"
   xmlns:cc="http://creativecommons.org/ns#"
   xmlns:rdf="http://www.w3.org/1999/02/22-rdf-syntax-ns#"
   xmlns:svg="http://www.w3.org/2000/svg"
   xmlns="http://www.w3.org/2000/svg"
   xmlns:sodipodi="http://sodipodi.sourceforge.net/DTD/sodipodi-0.dtd"
   xmlns:inkscape="http://www.inkscape.org/namespaces/inkscape"
   id="svg2"
   version="1.1"
   data-tags="remove-circle, cancel, close, remove, delete"
   height="1200"
   width="1200"
   data-du=""
   viewBox="0 0 1200 1200"
   inkscape:version="0.48.4 r9939"
   sodipodi:docname="livejournal.svg">
  <defs
     id="defs32">
    <pattern
       id="pattern13199"
       width="811.3138"
       patternUnits="userSpaceOnUse"
       patternTransform="translate(-1692.9959,113.8855)"
       height="483.7205">
      <path
         id="path13201"
         filter="url(#filter3767)"
         d="M241.8603,83.1823H569.4535A158.678,158.678 0 0 1 728.1315,241.8603V241.8603A158.678,158.678 0 0 1 569.4535,400.5382H241.8603A158.678,158.678 0 0 1 83.1823,241.8603V241.8603A158.678,158.678 0 0 1 241.8603,83.1823" />
    </pattern>
    <mask
       id="mask13195"
       maskUnits="userSpaceOnUse">
      <path
         id="path13197"
         d="m -957.1864,582.2458 40.9492,-299.4407 -144.6017,-8.9576 -10.2373,67.822 -12.7966,11.5169 -8.9576,216.2627 -65.2627,-21.7542 14.0763,-270.0085 -74.2204,-6.3983 -11.5169,28.1525 -14.0763,225.2203 -42.2288,-8.9576 2.5593,-250.8136 -6.3983,0 -7.678,-70.3814 -33.2712,1.2797 -1.2796,29.4322 -7.678,17.9153 -2.5593,189.3898 -26.8729,33.2712 2.5593,88.2966 40.9492,19.1949 34.5508,-46.0678 284.0848,76.7797 49.9068,-21.7542"
         inkscape:connector-curvature="0"
         style="fill:#ffffff;stroke:#000000" />
    </mask>
    <filter
       id="filter13191"
       y="-0.26210001"
       x="-0.12899999"
       width="1.2579"
       height="1.5242"
       color-interpolation-filters="sRGB">
      <feGaussianBlur
         id="feGaussianBlur13193"
         stdDeviation="34.659" />
    </filter>
    <inkscape:path-effect
       id="path-effect13189" />
  </defs>
  <sodipodi:namedview
     pagecolor="#ffffff"
     bordercolor="#666666"
     borderopacity="1"
     objecttolerance="10"
     gridtolerance="10"
     guidetolerance="10"
     inkscape:pageopacity="0"
     inkscape:pageshadow="2"
     inkscape:window-width="1535"
     inkscape:window-height="876"
     id="namedview30"
     showgrid="false"
     inkscape:zoom="0.52678571"
     inkscape:cx="809.57559"
     inkscape:cy="673.19002"
     inkscape:window-x="65"
     inkscape:window-y="24"
     inkscape:window-maximized="1"
     inkscape:current-layer="svg2" />
  <metadata
     id="metadata62">
    <rdf:RDF>
      <cc:Work
         rdf:about="">
        <dc:format>image/svg+xml</dc:format>
        <dc:type
           rdf:resource="http://purl.org/dc/dcmitype/StillImage" />
        <dc:title />
      </cc:Work>
    </rdf:RDF>
  </metadata>
  <path
     id="path13674"
     d="M 310.41278,1189.5405 C 205.97597,1162.6461 129.3766,1067.2354 117.18605,961.40752 94.106673,801.20283 161.90364,644.3879 252.36277,515.74461 235.45356,478.2132 212.31089,457.85352 178.6898,508.14758 117.48066,592.73868 72.815579,688.63157 42.765422,788.26368 23.695968,659.37501 117.19683,535.87109 176.64699,444.91063 165.16121,392.44742 101.32941,322.0203 103.81753,323.0403 70.060031,281.1371 32.84925,196.2324 68.431594,146.69654 116.78832,65.129127 206.7002,-2.6000874 304.65137,0.07670856 365.66763,14.760526 395.14332,77.450443 432.40755,122.49498 c 13.4393,18.0682 26.8786,36.13665 40.31789,54.20486 C 608.44497,104.27467 761.58302,41.344036 918.11342,70.126698 1033.8244,88.070911 1129.9336,183.25202 1149.9242,298.47639 1189.3793,492.9186 1104.754,688.48532 990.95343,842.39658 872.94842,998.24921 714.7753,1136.2004 522.09794,1186.5564 c -68.9836,14.2789 -142.73508,19.9848 -211.68516,2.9838 z m 271.14305,-77.1382 C 729.26482,1064.3833 840.90021,947.63026 939.75444,833.07126 1047.7777,695.79267 1120.5692,514.35759 1084.9782,338.30867 1059.0504,225.30007 954.50038,138.07084 838.45616,133.58702 c -112.86282,-7.30103 -225.22946,27.74624 -324.5597,78.99984 -2.05149,16.05938 23.76304,67.84149 48.39867,40.63243 105.26672,-54.69657 234.00094,-79.11891 348.77228,-41.6072 74.2268,27.57563 127.93319,99.50439 130.06429,179.13987 C 1055.0539,559.47642 952.09826,712.254 832.91764,821.8808 793.96709,867.86634 750.01732,885.63759 687.8524,854.5801 600.0499,814.34681 508.63497,780.97016 423.07825,736.41407 366.24066,683.10782 326.38379,614.51821 278.29496,553.47782 c -16.60875,20.16961 -32.90718,55.43555 -47.43071,81.53202 -58.38187,115.37627 -97.94297,262.34158 -26.64655,381.36276 61.21335,106.3934 198.18188,136.3488 311.1415,112.6395 22.40788,-4.0305 44.52914,-9.625 66.19639,-16.6098 z M 739.79928,849.48431 C 720.86529,740.43713 708.96912,629.80767 695.15741,520.27228 645.78373,440.16548 582.73145,366.18382 534.16872,287.33866 482.67794,218.50342 429.6349,142.72506 374.6306,83.996779 345.71762,34.414044 286.65161,5.7035846 232.63707,34.251397 160.54848,64.522792 88.034018,122.82076 72.674251,203.19287 90.565735,266.29108 139.84167,317.45281 174.94238,372.60336 262.94621,488.50485 340.64199,611.20297 427.6502,715.26899 532.48872,761.06305 642.67381,807.06408 742.33755,854.83885 z M 448.36168,674.75377 C 402.13731,651.92704 382.63098,592.17688 347.39762,554.08297 299.1248,486.25462 245.32637,421.5193 205.10223,348.52554 c 13.16648,-48.97336 29.36321,-58.32564 57.81703,-91.86985 41.87672,-29.77242 125.2643,-106.62914 178.19133,-31.07695 69.98578,88.86116 139.6868,178.66993 198.52923,275.38407 l 56.82516,234.23907 -50.03157,39.78868 C 596.01723,746.19806 448.36168,674.75377 448.36168,674.75377 z M 399.96606,451.6714 c -40.99688,-55.33125 -79.26867,-113.35922 -125.5882,-164.30275 -59.31118,39.49127 -21.89205,91.01346 9.99258,140.04331 52.83305,68.7075 100.03031,142.01508 156.71297,207.59531 79.69922,-73.09546 -25.96687,-149.07985 -41.11735,-183.33587 z m 208.95353,55.58205 C 594.43709,456.26141 550.98841,414.97977 522.19192,369.9657 481.89043,315.80467 442.61036,260.85148 400.72215,207.8935 c -27.24867,14.68219 -57.61758,16.02281 -79.29351,38.74407 41.11452,64.48523 87.90282,131.43306 133.35774,193.77703 44.23172,55.05259 100.03031,88.49228 154.13321,66.83885 z M 154.51121,298.60273 c -45.39399,-54.64524 24.62202,-113.71641 63.37547,-148.18315 35.60671,-29.96014 80.91749,-52.334521 126.24844,-44.94819 28.61204,4.66218 63.73922,41.02547 39.43618,57.03305 -59.54931,39.22359 -135.27213,66.62297 -175.56775,134.58985 -18.81422,35.33038 -31.46297,35.70397 -53.49234,1.50844 z m 49.36546,-38.30086 c 34.68891,-54.20533 98.19118,-75.64618 149.52072,-109.02189 -8.29009,-60.952023 -86.96978,-10.27383 -115.60618,13.07415 -28.54406,27.40358 -110.80851,88.10344 -55.51524,121.18828 9.77321,-5.99554 14.98571,-16.40882 21.6007,-25.24031 z m -97.48734,-39.36166 c -11.049844,-61.00264 42.11087,-113.27648 90.0511,-142.988669 27.51163,-16.750783 121.5443,-49.394995 112.19719,2.846949 -72.16921,22.98563 -136.14539,72.47508 -176.01047,137.35384 -6.07664,10.5811 -22.03173,21.73946 -26.23806,2.78788 z m 773.58612,492.222 C 950.78132,619.14102 1010.9923,496.10868 974.33108,376.59336 939.05929,270.38233 810.74295,234.94835 710.6292,255.3603 c -40.51712,14.20758 -133.65845,15.35813 -128.74594,63.39047 42.54374,61.40438 88.47937,120.35111 133.08446,180.25267 15.14038,111.15915 27.55289,224.08993 44.97633,333.83954 45.87539,-32.5943 84.00046,-76.56421 120.03164,-119.68077 z"
     inkscape:connector-curvature="0" />
</svg>

<?xml version="1.0" encoding="utf-8"?>
<!-- Generator: Adobe Illustrator 13.0.0, SVG Export Plug-In . SVG Version: 6.00 Build 14948)  -->
<!DOCTYPE svg PUBLIC "-//W3C//DTD SVG 1.1//EN" "http://www.w3.org/Graphics/SVG/1.1/DTD/svg11.dtd">
<svg version="1.1"
	 id="svg2" inkscape:version="0.48.4 r9939" sodipodi:docname="livejournal.svg" xmlns:dc="http://purl.org/dc/elements/1.1/" xmlns:cc="http://creativecommons.org/ns#" xmlns:rdf="http://www.w3.org/1999/02/22-rdf-syntax-ns#" xmlns:svg="http://www.w3.org/2000/svg" xmlns:sodipodi="http://sodipodi.sourceforge.net/DTD/sodipodi-0.dtd" xmlns:inkscape="http://www.inkscape.org/namespaces/inkscape"
	 xmlns="http://www.w3.org/2000/svg" xmlns:xlink="http://www.w3.org/1999/xlink" x="0px" y="0px" width="1200px" height="1200px"
	 viewBox="0 0 1200 1200" enable-background="new 0 0 1200 1200" xml:space="preserve">
<path id="path13674" inkscape:connector-curvature="0" d="M310.413,1189.541c-104.437-26.895-181.037-122.306-193.227-228.134
	c-23.08-160.204,44.718-317.02,135.177-445.663c-16.909-37.531-40.052-57.891-73.673-7.597
	C117.48,592.738,72.815,688.632,42.766,788.264c-19.07-128.889,74.431-252.393,133.881-343.354
	c-11.486-52.463-75.317-122.89-72.83-121.87C70.06,281.137,32.849,196.232,68.432,146.696C116.788,65.129,206.7-2.6,304.651,0.077
	c61.017,14.684,90.492,77.374,127.756,122.418c13.439,18.068,26.879,36.137,40.318,54.205
	c135.72-72.425,288.857-135.355,445.388-106.573c115.711,17.944,211.82,113.125,231.811,228.35
	c39.455,194.442-45.17,390.009-158.971,543.92c-118.005,155.853-276.178,293.804-468.855,344.16
	C453.114,1200.835,379.363,1206.541,310.413,1189.541L310.413,1189.541z M581.556,1112.402
	c147.709-48.02,259.345-164.772,358.199-279.331c108.022-137.278,180.814-318.714,145.224-494.763
	C1059.051,225.3,954.5,138.071,838.456,133.587c-112.862-7.301-225.229,27.746-324.56,79c-2.052,16.06,23.763,67.841,48.398,40.632
	c105.267-54.697,234.001-79.119,348.772-41.607c74.227,27.575,127.934,99.504,130.064,179.14
	c13.922,168.725-89.033,321.502-208.214,431.129c-38.951,45.985-82.9,63.757-145.065,32.699
	c-87.803-40.233-179.218-73.61-264.774-118.166c-56.838-53.307-96.694-121.896-144.783-182.937
	c-16.609,20.17-32.907,55.436-47.431,81.532c-58.382,115.376-97.943,262.342-26.646,381.363
	c61.213,106.393,198.182,136.349,311.142,112.639C537.768,1124.981,559.889,1119.387,581.556,1112.402L581.556,1112.402z
	 M739.799,849.484c-18.934-109.047-30.83-219.677-44.642-329.212c-49.373-80.107-112.426-154.089-160.988-232.934
	c-51.491-68.835-104.534-144.614-159.538-203.342c-28.913-49.583-87.979-78.293-141.994-49.745
	C160.548,64.523,88.034,122.821,72.674,203.193c17.892,63.098,67.167,114.26,102.268,169.411
	c88.004,115.901,165.699,238.6,252.708,342.665c104.838,45.795,215.023,91.796,314.688,139.57L739.799,849.484z M448.361,674.754
	c-46.224-22.827-65.73-82.577-100.964-120.671c-48.272-67.828-102.071-132.563-142.295-205.558
	c13.167-48.973,29.363-58.326,57.817-91.87c41.876-29.772,125.264-106.629,178.191-31.077
	c69.986,88.861,139.687,178.67,198.529,275.384l56.825,234.239l-50.031,39.788C596.018,746.198,448.361,674.754,448.361,674.754z
	 M399.966,451.672c-40.997-55.332-79.269-113.36-125.588-164.303c-59.311,39.491-21.892,91.014,9.993,140.043
	c52.833,68.707,100.03,142.015,156.712,207.595C520.782,561.912,415.116,485.928,399.966,451.672L399.966,451.672z M608.92,507.254
	c-14.482-50.992-57.932-92.274-86.729-137.288c-40.301-54.161-79.581-109.114-121.47-162.072
	c-27.248,14.682-57.617,16.023-79.293,38.744c41.114,64.485,87.902,131.433,133.357,193.777
	C499.019,495.467,554.816,528.907,608.92,507.254L608.92,507.254z M154.511,298.603c-45.394-54.645,24.622-113.716,63.375-148.183
	c35.606-29.96,80.917-52.334,126.248-44.948c28.612,4.663,63.739,41.026,39.437,57.033
	c-59.549,39.224-135.272,66.623-175.568,134.59C189.189,332.425,176.541,332.798,154.511,298.603L154.511,298.603z M203.876,260.302
	c34.689-54.205,98.191-75.646,149.521-109.022c-8.29-60.952-86.97-10.274-115.606,13.074
	c-28.544,27.404-110.808,88.104-55.515,121.188C192.049,279.547,197.262,269.134,203.876,260.302L203.876,260.302z M106.389,220.94
	C95.339,159.938,148.5,107.664,196.44,77.952c27.512-16.751,121.544-49.395,112.197,2.847
	c-72.169,22.986-136.146,72.475-176.011,137.354C126.55,228.733,110.595,239.892,106.389,220.94L106.389,220.94z M879.976,713.162
	c70.806-94.021,131.017-217.054,94.355-336.569C939.06,270.382,810.743,234.948,710.629,255.36
	c-40.517,14.208-133.658,15.358-128.746,63.391c42.544,61.404,88.479,120.351,133.085,180.253
	c15.141,111.158,27.553,224.09,44.977,333.839C805.819,800.249,843.944,756.278,879.976,713.162L879.976,713.162z"/>
</svg>
